icons/count.svg

<svg
  xmlns="http://www.w3.org/2000/svg"
  viewBox="0 0 500 500"
  width="500"
  height="500"
  fill="#ffffff"
>
  <path d="M480.1 340H369.8V160h110.3a14.9 14.9 0 0 0 0-29.8H369.8V19.9a14.9 14.9 0 0 0-29.8 0v110.3H160V19.9a14.9 14.9 0 0 0-29.8 0v110.3H19.9a14.9 14.9 0 0 0 0 29.8h110.3v180H19.9a14.9 14.9 0 0 0 0 29.8h110.3v110.3a14.9 14.9 0 0 0 29.8 0V369.8h180v110.3a14.9 14.9 0 0 0 29.8 0V369.8h110.3a14.9 14.9 0 0 0 0-29.8zM160 340V160h180v180z" />
</svg>

<svg xmlns="http://www.w3.org/2000/svg" viewBox="0 0 500 500">
  <g id="count">
    <path id="countIcon" d="M480.1,340H369.8V160H480.1a14.9,14.9,0,0,0,0-29.8H369.8V19.9a14.9,14.9,0,0,0-29.8,0V130.2H160V19.9a14.9,14.9,0,0,0-29.8,0V130.2H19.9a14.9,14.9,0,0,0,0,29.8H130.2V340H19.9a14.9,14.9,0,0,0,0,29.8H130.2V480.1a14.9,14.9,0,0,0,29.8,0V369.8H340V480.1a14.9,14.9,0,0,0,29.8,0V369.8H480.1a14.9,14.9,0,0,0,0-29.8ZM160,340V160H340V340Z"/>
  </g>
</svg>
